X:3469
T:Lady Anne Hope's Reel
O:england
C:William Docker's MS
Q:1/4=80
M:2/4
L:1/16
K:G
|:c2|Bcdc G2B2|E2G2 D2G2|F2A2 ABAG|
F2D2 D2c2|Bcdc G2B2|E2G2 D2G2|efge fgaf|
g2G2 G2:|
|:d2|g2b2 g2d2|g2b2 g2d2|e2a2 abag|
f2d2 d2d2|[1g2b2 g2d2|g2b2 g2d2|e2g2 f2a2|g2G2 G2:|
[2b2g2 a2f2|g2e2 d2c2|B2g2 A2f2|g2G2 G2


